overrides/.icons/class/abl/rage.svg

<?xml version="1.0" encoding="UTF-8" standalone="no"?>
<svg
   version="1.0"
   width="24"
   height="24"
   viewBox="0 0 18 18"
   preserveAspectRatio="xMidYMid"
   id="svg1"
   sodipodi:docname="026-03-002.barbarian-symbol.svg"
   xml:space="preserve"
   inkscape:version="1.3.2 (091e20e, 2023-11-25, custom)"
   xmlns:inkscape="http://www.inkscape.org/namespaces/inkscape"
   xmlns:sodipodi="http://sodipodi.sourceforge.net/DTD/sodipodi-0.dtd"
   xmlns="http://www.w3.org/2000/svg"
   xmlns:svg="http://www.w3.org/2000/svg"><defs
     id="defs1" /><sodipodi:namedview
     id="namedview1"
     pagecolor="#ffffff"
     bordercolor="#111111"
     borderopacity="1"
     inkscape:showpageshadow="0"
     inkscape:pageopacity="0"
     inkscape:pagecheckerboard="1"
     inkscape:deskcolor="#d1d1d1"
     inkscape:document-units="pt"
     inkscape:zoom="10.38"
     inkscape:cx="-2.0231214"
     inkscape:cy="11.897881"
     inkscape:window-width="1366"
     inkscape:window-height="697"
     inkscape:window-x="-8"
     inkscape:window-y="-8"
     inkscape:window-maximized="1"
     inkscape:current-layer="svg1" /><g
     transform="matrix(0.1,0,0,-0.1,0,300)"
     fill="#000000"
     stroke="none"
     id="g1" /><path
     style="stroke:none;stroke-width:0.999994"
     d="M 2.266089,5.3659795 C 2.9568387,4.8794809 3.4916273,4.1970778 4.35427,3.9921761 3.5627572,5.0310153 2.2405053,6.0396351 1.8698061,7.3442563 1.634711,8.171637 1.9895812,9.5964182 2.3210411,10.366623 L 4.5740783,9.2126283 C 3.9908811,9.9480149 3.1270975,11.159343 3.3826,12.180043 c 0.083882,0.335094 0.5016228,0.645613 0.751861,0.863333 0.7907845,0.688021 1.6954338,1.229529 2.6926545,1.554561 C 6.4311918,14.029195 6.0251834,13.565815 5.8013427,12.894421 5.6437002,12.421587 5.5632163,11.963992 5.5632163,11.465665 c 0,-0.393605 0.037086,-0.77481 0.1495065,-1.153995 C 6.4854225,7.7055065 9.619181,7.8184451 11.388142,6.1902612 10.888981,8.296641 8.600607,7.8500277 7.5414932,9.3225324 L 8.4756792,9.2126283 V 12.564708 H 8.2009189 v 3.791697 h 0.3297124 c 0,0.215601 -0.049587,0.513068 0.06479,0.706235 0.1317007,0.222432 0.6521782,0.260737 0.8046084,0.03926 0.1279826,-0.18595 0.06479,-0.530518 0.06479,-0.745499 H 9.7945328 V 12.564708 H 9.5197693 V 9.2675803 C 10.328561,9.3765809 11.00875,9.8343375 11.498046,10.476527 l 1.868372,-1.5386591 c -0.187899,0.8122117 -0.675899,1.4804351 -0.944362,2.2530371 -0.175135,0.504016 -0.08919,1.117704 -0.249278,1.648564 -0.208751,0.692214 -0.657221,1.180745 -1.059397,1.758468 3.691974,-1.068473 6.439438,-6.077721 4.396171,-9.6715749 L 14.355557,6.5199737 C 14.810172,5.4633263 14.653381,4.3640995 14.886888,3.2777984 15.004815,2.7291845 15.36067,2.2803169 15.619456,1.794091 15.205139,1.795269 14.822923,1.8740233 14.465461,2.0945882 14.297635,2.1981422 14.072874,2.4891849 13.860987,2.4663638 13.502785,2.4277852 12.970779,1.8295079 12.652041,1.6327964 11.953145,1.2014707 11.14583,0.91548883 10.344051,0.75000013 10.654662,1.2200434 10.992685,1.6310553 11.166764,2.1787555 11.597062,3.5325891 11.109934,5.3310371 9.5747221,5.6956919 9.5747646,5.3068953 9.5186536,4.6690603 9.7945305,4.3768407 L 9.0252006,3.2777984 H 8.9152965 L 8.1459668,4.3768407 C 8.4326794,4.6805349 8.365775,5.2970566 8.365775,5.6956919 7.4114308,5.2434819 6.5872165,4.5550611 6.797689,3.3877025 6.8581732,3.0522223 7.0275866,2.7639421 7.1568279,2.4535166 L 6.1676899,2.9480852 7.5964453,0.75000013 C 5.3116802,1.2215795 2.8324915,2.9814027 2.266089,5.3659795 Z"
     id="path2" /><path
     style="fill:#000000"
     id="path1"
     d="" /></svg>

<?xml version="1.0" encoding="UTF-8"?>
<svg id="svg1" width="24" height="24" preserveAspectRatio="xMidYMid" version="1.0" viewBox="0 0 18 18" xml:space="preserve" xmlns="http://www.w3.org/2000/svg"><path id="path2" d="m2.2661 5.366c0.69075-0.4865 1.2255-1.1689 2.0882-1.3738-0.79151 1.0388-2.1138 2.0475-2.4845 3.3521-0.2351 0.82738 0.11978 2.2522 0.45124 3.0224l2.253-1.154c-0.5832 0.73539-1.447 1.9467-1.1915 2.9674 0.083882 0.33509 0.50162 0.64561 0.75186 0.86333 0.79078 0.68802 1.6954 1.2295 2.6927 1.5546-0.39592-0.56874-0.80193-1.0321-1.0258-1.7035-0.15764-0.47283-0.23813-0.93043-0.23813-1.4288 0-0.3936 0.037086-0.77481 0.14951-1.154 0.7727-2.6062 3.9065-2.4932 5.6754-4.1214-0.49916 2.1064-2.7875 1.6598-3.8466 3.1323l0.93419-0.1099v3.3521h-0.27476v3.7917h0.32971c0 0.2156-0.049587 0.51307 0.06479 0.70624 0.1317 0.22243 0.65218 0.26074 0.80461 0.03926 0.12798-0.18595 0.06479-0.53052 0.06479-0.7455h0.32971v-3.7917h-0.27476v-3.2971c0.80879 0.109 1.489 0.56676 1.9783 1.2089l1.8684-1.5387c-0.1879 0.81221-0.6759 1.4804-0.94436 2.253-0.17514 0.50402-0.08919 1.1177-0.24928 1.6486-0.20875 0.69221-0.65722 1.1807-1.0594 1.7585 3.692-1.0685 6.4394-6.0777 4.3962-9.6716l-1.154 1.5936c0.45462-1.0566 0.29782-2.1559 0.53133-3.2422 0.11793-0.54861 0.47378-0.99748 0.73257-1.4837-0.41432 0.001178-0.79653 0.079932-1.154 0.3005-0.16783 0.10355-0.39259 0.3946-0.60447 0.37178-0.3582-0.038579-0.89021-0.63686-1.2089-0.83357-0.6989-0.43133-1.5062-0.71731-2.308-0.8828 0.31061 0.47004 0.64863 0.88106 0.82271 1.4288 0.4303 1.3538-0.05683 3.1523-1.592 3.5169 4.25e-5 -0.3888-0.056068-1.0266 0.21981-1.3189l-0.76933-1.099h-0.1099l-0.76933 1.099c0.28671 0.30369 0.21981 0.92022 0.21981 1.3189-0.95434-0.45221-1.7786-1.1406-1.5681-2.308 0.060484-0.33548 0.2299-0.62376 0.35914-0.93419l-0.98914 0.49457 1.4288-2.1981c-2.2848 0.47158-4.764 2.2314-5.3304 4.616z"/></svg>
